app/assets/images/visual-editor/icons/superscript.svg

<?xml version="1.0" encoding="utf-8"?>
<svg xmlns="http://www.w3.org/2000/svg" width="24" height="24" viewBox="0 0 24 24">
    <g id="superscript" opacity=".75">
        <path id="x" d="M13 9l-2.354 3.406 2.354 3.594h-1.199l-1.801-2.75-1.801 2.75h-1.199l2.403-3.662-2.403-3.338h1.188l1.857 2.494 1.752-2.494h1.203z"/>
        <path id="superscript_2" d="M15.578 11h2.422v1h-4v-1l2.006-1.507c.18-.145.312-.285.396-.424.086-.137.129-.281.129-.43 0-.229-.088-.414-.262-.555-.17-.14-.398-.203-.685-.21-.662-.015-1.584.126-1.584.126l.016-.656c.316-.094.641-.207.95-.256.311-.05.615-.075.913-.075.655 0 1.198.166 1.561.424.364.258.545.618.545 1.079 0 .268-.077.517-.23.748-.154.231-.514.501-1.007.89l-1.17.846z"/>
    </g>
</svg>

<?xml version="1.0" encoding="iso-8859-1"?>
<!DOCTYPE svg PUBLIC "-//W3C//DTD SVG 1.1//EN" "http://www.w3.org/Graphics/SVG/1.1/DTD/svg11.dtd">
<svg version="1.1" xmlns="http://www.w3.org/2000/svg" xmlns:xlink="http://www.w3.org/1999/xlink" x="0px" y="0px" width="24px"
	 height="24px" viewBox="0 0 24 24" style="enable-background:new 0 0 24 24;" xml:space="preserve">
<g id="superscript" style="opacity:0.75;">
	<path id="x_3_" d="M13,9l-2.354,3.406L13,16h-1.199L10,13.25L8.199,16H7l2.403-3.662L7,9h1.188l1.857,2.494L11.797,9H13z"/>
	<path id="_x32__2_" d="M15.578,11H18v1h-4v-1l2.006-1.507c0.18-0.145,0.312-0.285,0.396-0.424c0.086-0.137,0.129-0.281,0.129-0.43
		c0-0.229-0.088-0.414-0.262-0.555c-0.17-0.14-0.398-0.203-0.685-0.21C14.922,7.859,14,8,14,8l0.016-0.656
		c0.316-0.094,0.641-0.207,0.95-0.256c0.311-0.05,0.615-0.075,0.913-0.075c0.655,0,1.198,0.166,1.561,0.424
		c0.364,0.258,0.545,0.618,0.545,1.079c0,0.268-0.077,0.517-0.23,0.748c-0.154,0.231-0.514,0.501-1.007,0.89L15.578,11z"/>
</g>
</svg>
